src/assets/icons/carouselVilla.svg

<svg width="60" height="60" viewBox="0 0 60 60" fill="none" xmlns="http://www.w3.org/2000/svg">
<path d="M7.5 27.1875H15C15.5175 27.1875 15.9375 26.7684 15.9375 26.25V20.625C15.9375 20.1066 15.5175 19.6875 15 19.6875H7.5C6.9825 19.6875 6.5625 20.1066 6.5625 20.625V26.25C6.5625 26.7684 6.9825 27.1875 7.5 27.1875ZM14.0625 25.3125H12.1875V21.5625H14.0625V25.3125ZM8.4375 21.5625H10.3125V25.3125H8.4375V21.5625Z" fill="white"/>
<path d="M18.75 27.1875H26.25C26.7675 27.1875 27.1875 26.7684 27.1875 26.25V20.625C27.1875 20.1066 26.7675 19.6875 26.25 19.6875H18.75C18.2325 19.6875 17.8125 20.1066 17.8125 20.625V26.25C17.8125 26.7684 18.2325 27.1875 18.75 27.1875ZM25.3125 25.3125H23.4375V21.5625H25.3125V25.3125ZM19.6875 21.5625H21.5625V25.3125H19.6875V21.5625Z" fill="white"/>
<path d="M58.3941 30.0394L30.9375 21.8025V20.625H37.5C39.5681 20.625 41.25 18.9431 41.25 16.875C41.25 15.1303 40.0519 13.6594 38.4356 13.2431C38.4375 13.2037 38.4375 13.1644 38.4375 13.125C38.4375 10.5403 36.3347 8.43749 33.75 8.43749C31.8572 8.43749 30.1791 9.57655 29.4525 11.2809C28.9538 11.3391 28.4747 11.4844 28.0219 11.6962L17.5378 1.21218C17.1713 0.845615 16.5787 0.845615 16.2122 1.21218L3.08719 14.3372C2.91094 14.5125 2.8125 14.7506 2.8125 15V53.4375H1.875C1.3575 53.4375 0.9375 53.8566 0.9375 54.375V58.125C0.9375 58.6434 1.3575 59.0625 1.875 59.0625H58.125C58.6425 59.0625 59.0625 58.6434 59.0625 58.125V54.375C59.0625 53.8566 58.6425 53.4375 58.125 53.4375H57.1875V36.3225L57.8559 36.5231C57.9441 36.5494 58.035 36.5625 58.125 36.5625C58.3237 36.5625 58.5206 36.4997 58.6847 36.3778C58.9228 36.1997 59.0625 35.9212 59.0625 35.625V30.9375C59.0625 30.5241 58.7906 30.1584 58.3941 30.0394ZM29.0625 15.9375V29.0625H4.6875V15.9375H29.0625ZM29.0625 34.6875H27.1875V30.9375H29.0625V34.6875ZM10.3125 30.9375V34.6875H8.4375V30.9375H10.3125ZM12.1875 30.9375H14.0625V34.6875H12.1875V30.9375ZM15.9375 30.9375H17.8125V34.6875H15.9375V30.9375ZM19.6875 30.9375H21.5625V34.6875H19.6875V30.9375ZM23.4375 30.9375H25.3125V34.6875H23.4375V30.9375ZM6.5625 30.9375V34.6875H4.6875V30.9375H6.5625ZM29.0625 36.5625V38.4375H4.6875V36.5625H29.0625ZM29.9391 13.1222C29.97 13.1269 30.0581 13.1362 30.0891 13.1372C30.5428 13.1803 30.9272 12.8616 31.0369 12.4322C31.3556 11.1844 32.4713 10.3125 33.75 10.3125C35.3006 10.3125 36.5625 11.5744 36.5625 13.125C36.5625 13.3369 36.5288 13.5628 36.4566 13.8375C36.3806 14.1253 36.4453 14.4319 36.6319 14.6634C36.8175 14.895 37.1081 15.0375 37.3997 15.0131C37.4541 15.0112 37.5056 15.0047 37.5 15C38.5341 15 39.375 15.8409 39.375 16.875C39.375 17.9091 38.5341 18.75 37.5 18.75H30.9375V15C30.9375 14.7506 30.8391 14.5125 30.6628 14.3372L29.4947 13.1691C29.6438 13.1409 29.7928 13.1231 29.9391 13.1222ZM16.875 3.20062L27.7369 14.0625H6.01312L16.875 3.20062ZM4.6875 40.3125H29.0625V53.4375H23.4375V45C23.4375 44.4816 23.0175 44.0625 22.5 44.0625H11.25C10.7325 44.0625 10.3125 44.4816 10.3125 45V53.4375H4.6875V40.3125ZM12.1875 53.4375V45.9375H15.9375V53.4375H12.1875ZM17.8125 45.9375H21.5625V53.4375H17.8125V45.9375ZM57.1875 57.1875H2.8125V55.3125H57.1875V57.1875ZM51.5625 42.1875H34.6875V40.3125H51.5625V42.1875ZM34.6875 44.0625H51.5625V45.9375H34.6875V44.0625ZM34.6875 47.8125H51.5625V53.4375H34.6875V47.8125ZM55.3125 53.4375H53.4375V39.375C53.4375 38.8566 53.0175 38.4375 52.5 38.4375H33.75C33.2325 38.4375 32.8125 38.8566 32.8125 39.375V53.4375H30.9375V28.4475L55.3125 35.76V53.4375ZM57.1875 34.365L30.9375 26.49V23.76L57.1875 31.635V34.365Z" fill="white"/>
<path d="M46.875 13.125H54.375C56.9597 13.125 59.0625 11.0222 59.0625 8.4375C59.0625 6.0375 57.2503 4.05375 54.9225 3.78187C54.1959 2.07656 52.5178 0.9375 50.625 0.9375C48.0403 0.9375 45.9375 3.04031 45.9375 5.625C45.9375 5.66437 45.9375 5.70375 45.9394 5.74312C44.3231 6.15937 43.125 7.63031 43.125 9.375C43.125 11.4431 44.8069 13.125 46.875 13.125ZM46.8169 7.49719C46.8487 7.50188 46.9425 7.51219 46.9744 7.51312C47.2725 7.53656 47.5566 7.39594 47.7422 7.16344C47.9287 6.93187 47.9934 6.62531 47.9175 6.3375C47.8462 6.06281 47.8125 5.83687 47.8125 5.625C47.8125 4.07437 49.0744 2.8125 50.625 2.8125C51.9038 2.8125 53.0194 3.68438 53.3381 4.93219C53.4478 5.36156 53.8462 5.65969 54.2859 5.63719C54.3366 5.63531 54.3862 5.62969 54.375 5.625C55.9256 5.625 57.1875 6.88688 57.1875 8.4375C57.1875 9.98812 55.9256 11.25 54.375 11.25H46.875C45.8409 11.25 45 10.4091 45 9.375C45 8.34094 45.8409 7.5 46.8169 7.49719Z" fill="white"/>
</svg>

<svg xmlns="http://www.w3.org/2000/svg" width="60" height="60" fill="none"><path fill="#fff" d="M7.5 27.188H15c.518 0 .938-.42.938-.938v-5.625a.937.937 0 0 0-.938-.938H7.5a.937.937 0 0 0-.938.938v5.625c0 .518.42.938.938.938Zm6.563-1.875h-1.876v-3.75h1.876v3.75Zm-5.626-3.75h1.876v3.75H8.437v-3.75ZM18.75 27.188h7.5c.517 0 .938-.42.938-.938v-5.625a.937.937 0 0 0-.938-.938h-7.5a.937.937 0 0 0-.938.938v5.625c0 .518.42.938.938.938Zm6.563-1.875h-1.875v-3.75h1.875v3.75Zm-5.625-3.75h1.875v3.75h-1.875v-3.75Z"/><path fill="#fff" d="m58.394 30.04-27.456-8.238v-1.177H37.5a3.754 3.754 0 0 0 3.75-3.75 3.757 3.757 0 0 0-2.814-3.632c.002-.04.002-.079.002-.118a4.693 4.693 0 0 0-4.688-4.688 4.674 4.674 0 0 0-4.297 2.844 4.644 4.644 0 0 0-1.431.415L17.538 1.212a.936.936 0 0 0-1.326 0L3.087 14.337a.933.933 0 0 0-.275.663v38.438h-.937a.937.937 0 0 0-.938.937v3.75c0 .518.42.938.938.938h56.25c.517 0 .938-.42.938-.938v-3.75a.937.937 0 0 0-.938-.938h-.938V36.323l.669.2a.943.943 0 0 0 .829-.145.94.94 0 0 0 .377-.753v-4.688a.939.939 0 0 0-.668-.898ZM29.063 15.937v13.124H4.688V15.938h24.375Zm0 18.75h-1.875v-3.75h1.875v3.75Zm-18.75-3.75v3.75H8.437v-3.75h1.876Zm1.874 0h1.876v3.75h-1.876v-3.75Zm3.75 0h1.876v3.75h-1.875v-3.75Zm3.75 0h1.875v3.75h-1.875v-3.75Zm3.75 0h1.875v3.75h-1.875v-3.75Zm-16.875 0v3.75H4.688v-3.75h1.875Zm22.5 5.625v1.874H4.688v-1.874h24.375Zm.877-23.44c.031.004.12.013.15.014.454.043.838-.275.948-.705a2.805 2.805 0 0 1 2.713-2.12 2.816 2.816 0 0 1 2.813 2.813c0 .212-.034.438-.106.713a.935.935 0 0 0 .175.825.909.909 0 0 0 .868.337c1.034 0 1.875.84 1.875 1.875 0 1.034-.84 1.875-1.875 1.875h-6.563V15a.933.933 0 0 0-.274-.663l-1.168-1.168c.149-.028.298-.046.444-.047ZM16.875 3.2l10.862 10.861H6.013L16.875 3.201ZM4.687 40.312h24.375v13.126h-5.625V45a.937.937 0 0 0-.937-.938H11.25a.937.937 0 0 0-.938.938v8.438H4.689V40.312Zm7.5 13.126v-7.5h3.75v7.5h-3.75Zm5.626-7.5h3.75v7.5h-3.75v-7.5Zm39.374 11.25H2.813v-1.876h54.374v1.876Zm-5.624-15H34.686v-1.876h16.876v1.876Zm-16.876 1.874h16.876v1.876H34.686v-1.876Zm0 3.75h16.876v5.626H34.686v-5.626Zm20.626 5.626h-1.876V39.374a.937.937 0 0 0-.937-.938H33.75a.937.937 0 0 0-.938.938v14.063h-1.874v-24.99l24.375 7.312v17.678Zm1.874-19.073-26.25-7.875v-2.73l26.25 7.875v2.73ZM46.875 13.125h7.5a4.693 4.693 0 0 0 4.688-4.688c0-2.4-1.813-4.383-4.14-4.655A4.673 4.673 0 0 0 50.624.937a4.693 4.693 0 0 0-4.686 4.806 3.757 3.757 0 0 0-2.814 3.632 3.754 3.754 0 0 0 3.75 3.75Zm-.058-5.628c.032.005.126.015.157.016a.901.901 0 0 0 .768-.35.936.936 0 0 0 .175-.825 2.812 2.812 0 0 1-.105-.713 2.816 2.816 0 0 1 2.813-2.813c1.279 0 2.394.872 2.713 2.12.11.43.508.728.948.705.05-.002.1-.007.089-.012a2.816 2.816 0 0 1 2.813 2.813 2.816 2.816 0 0 1-2.813 2.812h-7.5A1.877 1.877 0 0 1 45 9.375c0-1.034.84-1.875 1.817-1.878Z"/></svg>
